32x32/apps/keduca.svg

<svg xmlns="http://www.w3.org/2000/svg" height="32" width="32" version="1.1">
 <circle cx="16" cy="17" r="14" style="opacity:.2"/>
 <path style="fill:#4ac73e" d="m16 2a14 14 0 0 0 -14 14 14 14 0 0 0 14 14 14 14 0 0 0 1 -0.037109v-27.91211a14 14 0 0 0 -1 -0.050781z"/>
 <path style="fill:#ff5757" d="m16 2v28a14 14 0 0 0 14 -14 14 14 0 0 0 -14 -14z"/>
 <path d="m16 2a14 14 0 0 0 -14 14 14 14 0 0 0 0.0215 0.586 14 14 0 0 1 13.9785 -13.586 14 14 0 0 1 13.979 13.414 14 14 0 0 0 0.021 -0.414 14 14 0 0 0 -14 -14z" style="opacity:.2;fill:#f4f4f7"/>
 <path style="opacity:.2" d="m15.5 7c-3.2045 0-5.800781 2.7955-5.800781 6h2.90039c0-1.595 1.305391-3.0996094 2.900391-3.0996094s2.900391 1.3053904 2.900391 2.9003904c0 0.7975-0.318969 1.520969-0.855469 2.042969l-1.798828 1.828125c-1.044 1.0585-1.695313 2.508516-1.695313 4.103516v0.224609h2.919922c0.09713-1.807411 0.717891-2.632321 1.675781-3.603516l1.304688-1.333984c0.8265-0.8265 1.349609-1.985719 1.349609-3.261719 0-3.2044996-2.596281-5.800781-5.800781-5.800781zm-1.5 17v3h3v-3z"/>
 <path style="fill:#f4f4f7" d="m15.5 6c-3.2045 0-5.800781 2.7955-5.800781 6h2.90039c0-1.595 1.305391-3.0996094 2.900391-3.0996094s2.900391 1.3053904 2.900391 2.9003904c0 0.7975-0.318969 1.520969-0.855469 2.042969l-1.798828 1.828125c-1.044 1.0585-1.695313 2.508516-1.695313 4.103516v0.224609h2.919922c0.09713-1.807411 0.717891-2.632321 1.675781-3.603516l1.304688-1.333984c0.8265-0.8265 1.349609-1.985719 1.349609-3.261719 0-3.2044996-2.596281-5.800781-5.800781-5.800781zm-1.5 17v3h3v-3z"/>
</svg>

<svg xmlns="http://www.w3.org/2000/svg" height="32" width="32"><circle cx="16" cy="17" r="14" style="opacity:.2"/><path style="fill:#4ac73e" d="M16 2A14 14 0 0 0 2 16a14 14 0 0 0 14 14 14 14 0 0 0 1-.037V2.05A14 14 0 0 0 16 2z"/><path style="fill:#ff5757" d="M16 2v28a14 14 0 0 0 14-14A14 14 0 0 0 16 2z"/><path d="M16 2A14 14 0 0 0 2 16a14 14 0 0 0 .021.586A14 14 0 0 1 16 3a14 14 0 0 1 13.979 13.414A14 14 0 0 0 30 16 14 14 0 0 0 16 2z" style="opacity:.2;fill:#f4f4f7"/><path style="opacity:.2" d="M15.5 7c-3.204 0-5.8 2.796-5.8 6h2.9c0-1.595 1.305-3.1 2.9-3.1s2.9 1.306 2.9 2.9c0 .798-.319 1.522-.855 2.044l-1.799 1.828a5.835 5.835 0 0 0-1.695 4.103V21h2.92c.097-1.807.718-2.632 1.675-3.604l1.305-1.333a4.613 4.613 0 0 0 1.35-3.262A5.8 5.8 0 0 0 15.5 7zM14 24v3h3v-3z"/><path style="fill:#f4f4f7" d="M15.5 6c-3.204 0-5.8 2.796-5.8 6h2.9c0-1.595 1.305-3.1 2.9-3.1s2.9 1.306 2.9 2.9c0 .798-.319 1.522-.855 2.044l-1.799 1.828a5.835 5.835 0 0 0-1.695 4.103V20h2.92c.097-1.807.718-2.632 1.675-3.604l1.305-1.333a4.613 4.613 0 0 0 1.35-3.262A5.8 5.8 0 0 0 15.5 6zM14 23v3h3v-3z"/></svg>
